X:1
T:Dixit Dominus
T:Jan Tollius
T:Dixit Dominus
C:Jan Tollius
%%score [ 1 2 3 ]
L:1/8
Q:1/4=64
M:4/4
K:D
V:1 treble nm="Soprano" snm="S"
V:2 treble-8 nm="Tenor" snm="T"
V:3 bass nm="Bass" snm="B"
V:1
 B>A B/c/ d2 B d>d | cc>BA/G/ F>F BB- | B/c<dc/B/A/ B>A G/F/G- | G/A/B/c/ d/e/ f2 e/d/ c2 | %4
w: Di- * * * * xit Do- mi-|nus Do- * * * * mi- no me-|||
 B2 z f ff ^d>e | fB z B cABd | cded cBAG | FE F2 B4 | G8 | A4 B4 | B3 B B2 =c2- | cB B4 A2 | %12
w: o, Se- de à dex- tris|me- is. Se- de à dex- tris|me- * * * * * * *|* * * is.|Di-|xit _|Do- mi- nus Do-|* mi- no me-|
 B4 B4 | B2 B2 A2 G2 | A3 B AGFE | F4 E4- | E8 || E2 EE B2 E e/e/ | ^d2 e2 B2 BB | E2 BB/B/ c2 B2 | %20
w: o, Se-|de à dex- tris|me- * * * * *|* is.|_|Tu es sa- cer- dos in ae-|ter- num, Tu es sa-|cer- dos in ae- ter- num,|
 z4 E2 EE | B2 E e/e/ ^d2 e2 | z B/B/ c2 B2 z2 | e2 ee A2 e E/E/ | F2 E A/A/ ^G2 A2 | z4 F2 FF | %26
w: Tu es sa-|cer- dos in ae- ter- num,|in ae- ter- num,|Tu es sa- cer- dos in ae-|ter- num, in ae- ter- num,|Tu es sa-|
 c2 F G/G/ A2 ^G2 | ^GG/A/ Bc d=G F>F | E4 z2 z E | B>B E2 ^GG/A/ Bc | dG F>F E4- | E8 |] %32
w: cer- dos in ae- ter- num,|se- cun- dum or- di- nem Mel- chi- se-|dech. Mel-|chi- se- dech. se- cun- dum or- di-|nem Mel- chi- se- dech.|_|
V:2
 z2 B>A B/c/ d2 B | e>e c e2 ^d/c/ d>e | ff>ed/c/ d/e/ f2 e/d/ | ed/c/ B/c/d/B/ c/B/c/d/ e2- | %4
w: Di- * * * * xit|Do- mi- nus Do- * * * mi-|no me- * * * * * * * *||
 e2 ^d2 z fff | ^d>e fB z cdB | edcB c2 c2 | ^A B2 A B4 | z2 E>D E/F/ G2 E | A>A F A2 ^G/F/ G>A | %10
w: * o, Se- de à|dex- tris me- is. Se- de à|dex- * * * * tris|me- * * is.|Di- * * * * xit|Do- mi- nus Do- * * * mi-|
 BB>AG/F/ G/A/ B2 A/G/ | AG/F/ E/F/G/E/ F/E/F/G/ A2- | A2 ^G2 z BBB | ^G>A BE z F=GE | AGFE F2 F2 | %15
w: no me- * * * * * * * *||* o, Se- de à|dex- tris me- is. Se- de à|dex- * * * * tris|
 ^D E2 D E4- | E8 || z4 E2 EE | B2 E e/e/ ^d2 eB/B/ | c2 B2 e2 ee | A2 e A/A/ ^G2 A2 | %21
w: me- * * is.|_|Tu es sa-|cer- dos in ae- ter- num, in ae-|ter- num, Tu es sa-|cer- dos in ae- ter- num,|
 z B/B/ c2 B4 | z2 z A/A/ ^G2 A2 | z2 z E/E/ F2 E2 | A2 AA e2 A F/F/ | G2 F2 z c/c/ B2 | %26
w: in ae- ter- num,|in ae- ter- num,|in ae- ter- num,|Tu es sa- cer- dos in ae-|ter- num, in ae- ter-|
 c2 z e/e/ ^d2 e2 | EE/F/ GA Be ^d>d | e2 cc/d/ efg=c | B>B A2 EE/F/ GA | Be ^d>d e4- | e8 |] %32
w: num, in ae- ter- num,|se- cun- dum or- di- nem Mel- chi- se-|dech. se- cun- dum or- di- nem Mel-|chi- se- dech. se- cun- dum or- di-|nem Mel- chi- se- dech.|_|
V:3
 G,8 | A,4 B,4 | B,3 B, B,2 =C2- | CB, B,4 A,2 | B,4 B,4 | B,2 B,2 A,2 G,2 | A,3 B, A,G,F,E, | %7
w: Di-|xit _|Do- mi- nus Do-|* mi- no me-|o, Se-|de à dex- tris|me- * * * * *|
 F,4 E,4 | E,>D, E,/F,/ G,2 E, G,>G, | F,F,>E,D,/C,/ B,,>B,, E,E,- | %10
w: * is.|Di- * * * * xit Do- mi-|nus Do- * * * * mi- no me-|
 E,/F,<G,F,/E,/D,/ E,>D, =C,/B,,/C,- | C,/D,/E,/F,/ G,/A,/ B,2 A,/G,/ F,2 | E,2 z B, B,B, ^G,>A, | %13
w: ||o, Se- de à dex- tris|
 B,E,zE, F,D,E,G, | F,G,A,G, F,E,D,C, | B,,A,, B,,2 E,4- | E,8 || z8 | z8 | z A,/A,/ ^G,2 A,2 z2 | %20
w: me- is. Se- de à dex- tris|me- * * * * * * *|* * * is.|_|||in ae- ter- num,|
 A,,2 A,,A,, E,2 A,, A,/A,/ | ^G,2 A,2 z2 E,2 | E,E, A,,2 E,E,/E,/ F,2 | E,4 z D,/D,/ C,2 | %24
w: Tu es sa- cer- dos in ae-|ter- num, Tu|es sa- cer- dos in ae- ter-|num, in ae- ter-|
 D,2 z2 z4 | B,,2 B,,B,, F,2 B,, B,/B,/ | ^A,2 B, E,/E,/ F,2 E,2 | z4 z E, B,>B, | %28
w: num,|Tu es sa- cer- dos in ae-|ter- num, in ae- ter- num,|Mel- chi- se-|
 E,2 A,,A,,/B,,/ C,D,E,A, | ^G,>G, A,2 z4 | z E, B,>B, E,4- | E,8 |] %32
w: dech. se- cun- dum or- di- nem Mel-|chi- se- dech.|Mel- chi- se- dech.|_|

